X: 30775
T: Orphan, The
R: jig
M: 6/8
K: Eminor
|:~E3 EDB,|GFG A3|~B3 ABA|GEF EDB,|
~A,3 EDB,|GFG AGA|BdB ABA|1 GED EGF:|2 GED E3||
|:e/f/ge dBA|GAB d3|e/f/ge dBA|BGE DB,D|
EAG EDB,|GFG A3|BdB ABA|1 GED E3:|2 GED EGF||

